X:1
T: Deception Pass
C:Gordy Euler
R:Jig
Q: 180
K:D
M:6/8
L:1/16
|:F2D2E2 A2E2F2|D4d2 d2c2A2|d2c2A2 B2d2B2|A4d2 c2A2G2|
F2E2F2 A2E2F2|D4d2 d2c2A2|d2c2A2 G2E2A2|F2D2D2 D6:|
|:c2A2d2 c2A2c2|d4A2 A2B2c2|d2A2d2 B2c2d2|e2f2g2 a2f2d2|
c2A2d2 c2A2c2|d4A2 A2B2c2|d2A2F2 G2E2A2|F2D2D2 D6:|
